X:315
T:Harvest Home
C:Traditional
S:Colin Hume's website,  colinhume.com  - chords can also be printed below the stave.
Q:1/4=140
M:4/4
L:1/8
K:D
P:A
A>F | "D"D>AF>A D>AF>A | "D"d>ef>e d>cB>A | "A"e>Af>A g>Af>A | "E7"(3efe (3dcB "A"(3ABA (3GFE |
"D"D>AF>A D>AF>A | "D"d>ef>e d>cB>A | "A7"e>Af>A g>ec>e | "D"d2 f2 d2 :|
P:B
|: c>d | "A"e>A A/A/A "D"f>A A/A/A | "G"g2"D"f2 "A"e>A A/A/A | "A"e>Af>A "A"g>Af>A | "E7"(3efe (3dcB "A"(3ABA (3GFE |
"D"D>AF>A D>AF>A | "D"d>ef>e d>cB>A | "A7"e>Af>A g>ec>e | "D"d2 f2 d2 :|

